svg/black/npxs.svg

<svg height="32" viewBox="0 0 32 32" width="32" xmlns="http://www.w3.org/2000/svg"><g fill="none"><circle cx="16" cy="16" fill="#000" r="16"/><g fill="#fff" transform="translate(4 4)"><path d="m11.9723077 0c-6.60000001 0-11.9723077 5.37230769-11.9723077 11.9723077 0 6.6 5.37230769 11.9815385 11.9815385 11.9815385 6.6092307 0 11.9815384-5.3723077 11.9815384-11.9815385 0-6.60923078-5.3815384-11.9723077-11.9907692-11.9723077zm0 23.0307692c-6.0923077 0-11.05846155-4.956923-11.05846155-11.0584615.00923077-6.0923077 4.96615385-11.04923078 11.05846155-11.04923078s11.0584615 4.95692308 11.0584615 11.05846158c0 6.0923077-4.956923 11.0492307-11.0584615 11.0492307z"/><path d="m7.934646 5.245476h1.246142v6.627629h-1.246142z" transform="matrix(.70710678 -.70710678 .70710678 .70710678 -3.545835 8.558177)"/><path d="m14.752701 12.066h1.246142v6.627629h-1.246142z" transform="matrix(.70710678 -.70710678 .70710678 .70710678 -6.371711 15.376956)"/><path d="m11.357711 11.350636h1.246142v1.255373h-1.246142z" transform="matrix(.70710678 -.70710678 .70710678 .70710678 -4.960863 11.980061)"/><path d="m12.074934 7.974809h6.627629v1.246142h-6.627629z" transform="matrix(.70710678 -.70710678 .70710678 .70710678 -1.572359 13.399749)"/><path d="m5.277514 14.763256h6.627629v1.246142h-6.627629z" transform="matrix(.70710678 -.70710678 .70710678 .70710678 -8.363434 10.581537)"/></g></g></svg>

<?xml version="1.0" encoding="UTF-8"?>
<svg width="32px" height="32px" viewBox="0 0 32 32" version="1.1" xmlns="http://www.w3.org/2000/svg" xmlns:xlink="http://www.w3.org/1999/xlink">
    <!-- Generator: Sketch 50 (54983) - http://www.bohemiancoding.com/sketch -->
    <title>black/npxs</title>
    <desc>Created with Sketch.</desc>
    <defs></defs>
    <g id="black/npxs" stroke="none" stroke-width="1" fill="none" fill-rule="evenodd">
        <circle id="Combined-Shape" fill="#000000" fill-rule="nonzero" cx="16" cy="16" r="16"></circle>
        <g id="Pundi-X-(NPXS)" transform="translate(4.000000, 4.000000)" fill="#FFFFFF" fill-rule="nonzero">
            <path d="M11.9723077,0 C5.37230769,0 0,5.37230769 0,11.9723077 C0,18.5723077 5.37230769,23.9538462 11.9815385,23.9538462 C18.5907692,23.9538462 23.9630769,18.5815385 23.9630769,11.9723077 C23.9630769,5.36307692 18.5815385,0 11.9723077,0 Z M11.9723077,23.0307692 C5.88,23.0307692 0.913846154,18.0738462 0.913846154,11.9723077 C0.923076923,5.88 5.88,0.923076923 11.9723077,0.923076923 C18.0646154,0.923076923 23.0307692,5.88 23.0307692,11.9815385 C23.0307692,18.0738462 18.0738462,23.0307692 11.9723077,23.0307692 Z" id="Shape"></path>
            <rect id="Rectangle-path" transform="translate(8.557716, 8.559290) rotate(-45.000000) translate(-8.557716, -8.559290) " x="7.93464551" y="5.24547593" width="1.2461419" height="6.62762875"></rect>
            <rect id="Rectangle-path" transform="translate(15.375772, 15.379814) rotate(-45.000000) translate(-15.375772, -15.379814) " x="14.7527012" y="12.0659999" width="1.2461419" height="6.62762875"></rect>
            <rect id="Rectangle-path" transform="translate(11.980782, 11.978322) rotate(-45.000000) translate(-11.980782, -11.978322) " x="11.3577111" y="11.3506357" width="1.2461419" height="1.25537258"></rect>
            <rect id="Rectangle-path" transform="translate(15.388748, 8.597880) rotate(-45.000000) translate(-15.388748, -8.597880) " x="12.0749335" y="7.97480859" width="6.62762875" height="1.2461419"></rect>
            <rect id="Rectangle-path" transform="translate(8.591328, 15.386327) rotate(-45.000000) translate(-8.591328, -15.386327) " x="5.27751409" y="14.7632557" width="6.62762875" height="1.2461419"></rect>
        </g>
    </g>
</svg>
